tools/download-figma-icons/icons/solid/law.svg

<svg width="24" height="24" viewBox="0 0 24 24" fill="none" xmlns="http://www.w3.org/2000/svg">
<path fill-rule="evenodd" clip-rule="evenodd" d="M13.9103 17.3182C13.8451 17.3182 13.7798 17.3092 13.7161 17.2927C13.5226 17.2409 13.3576 17.1142 13.2593 16.9402L12.1276 14.9579C11.9228 14.6002 12.0451 14.1457 12.3998 13.9379L13.0658 13.5487L12.1688 11.9759L2.2448 17.7952C2.01305 17.9309 1.7558 17.9999 1.4933 17.9999C1.36655 17.9999 1.23905 17.9842 1.11305 17.9512C0.728301 17.8499 0.404301 17.6047 0.203301 17.2589V17.2582C-0.210699 16.5479 0.0285512 15.6307 0.737301 15.2144L10.6876 9.38016L9.66005 7.58016L9.0083 7.96116C8.8328 8.06241 8.6288 8.08866 8.4353 8.03765C8.2418 7.98591 8.0768 7.85916 7.97855 7.68516L6.8468 5.70291C6.64205 5.34516 6.7643 4.89066 7.11905 4.68366L14.9581 0.102656C15.1328 -9.44398e-05 15.3383 -0.0248444 15.5311 0.0261556C15.7246 0.0779056 15.8888 0.204656 15.9878 0.378656L17.1196 2.36241C17.3243 2.71866 17.2013 3.17391 16.8473 3.38091L16.1821 3.77016L19.5878 9.73866L20.2403 9.35766C20.4143 9.25566 20.6206 9.22941 20.8126 9.28041C21.0061 9.33291 21.1703 9.45966 21.2693 9.63366L22.4011 11.6174C22.6058 11.9737 22.4828 12.4289 22.1288 12.6359L14.2891 17.2154C14.1721 17.2837 14.0423 17.3182 13.9103 17.3182ZM13.4999 21.0001H23.2499C23.6646 21.0001 23.9999 21.3354 23.9999 21.7501V23.2501C23.9999 23.6641 23.6646 24.0001 23.2499 24.0001H13.4999C13.0851 24.0001 12.7499 23.6641 12.7499 23.2501V21.7501C12.7499 21.3354 13.0851 21.0001 13.4999 21.0001Z" fill="black"/>
</svg>

<svg width="24" height="24" viewBox="0 0 24 24" fill="none" xmlns="http://www.w3.org/2000/svg"><path fill-rule="evenodd" clip-rule="evenodd" d="M13.91 17.318a.745.745 0 0 1-.651-.378l-1.131-1.982a.75.75 0 0 1 .272-1.02l.666-.39-.897-1.572-9.924 5.82a1.48 1.48 0 0 1-1.132.155 1.482 1.482 0 0 1-.91-.692 1.5 1.5 0 0 1 .534-2.045l9.95-5.834-1.027-1.8-.652.381a.755.755 0 0 1-.573.077.745.745 0 0 1-.456-.353L6.847 5.703a.749.749 0 0 1 .272-1.02l7.84-4.58a.749.749 0 0 1 1.029.276l1.132 1.983a.75.75 0 0 1-.273 1.019l-.665.39 3.406 5.968.652-.381a.75.75 0 0 1 1.03.276l1.131 1.983a.75.75 0 0 1-.272 1.019l-7.84 4.58a.748.748 0 0 1-.379.102ZM13.5 21h9.75a.75.75 0 0 1 .75.75v1.5a.75.75 0 0 1-.75.75H13.5a.75.75 0 0 1-.75-.75v-1.5a.75.75 0 0 1 .75-.75Z" fill="currentColor"/></svg>
